build/img/icons/truck.svg

<svg width="38" height="34" viewBox="0 0 38 34" fill="none" xmlns="http://www.w3.org/2000/svg">
<path d="M0 17.8947V26.8421C0 27.3167 0.18198 27.7719 0.505906 28.1075C0.829833 28.443 1.26917 28.6316 1.72727 28.6316H3.45455C3.45455 30.0554 4.00049 31.4209 4.97227 32.4276C5.94404 33.4344 7.26206 34 8.63636 34C10.0107 34 11.3287 33.4344 12.3005 32.4276C13.2722 31.4209 13.8182 30.0554 13.8182 28.6316H24.1818C24.1818 30.0554 24.7278 31.4209 25.6995 32.4276C26.6713 33.4344 27.9893 34 29.3636 34C30.7379 34 32.056 33.4344 33.0277 32.4276C33.9995 31.4209 34.5455 30.0554 34.5455 28.6316H36.2727C36.7308 28.6316 37.1702 28.443 37.4941 28.1075C37.818 27.7719 38 27.3167 38 26.8421V5.36842C38 3.94463 37.4541 2.57915 36.4823 1.57237C35.5105 0.5656 34.1925 0 32.8182 0H17.2727C15.8984 0 14.5804 0.5656 13.6086 1.57237C12.6368 2.57915 12.0909 3.94463 12.0909 5.36842V8.94737H8.63636C7.83191 8.94737 7.03851 9.14141 6.31898 9.51413C5.59946 9.88684 4.97358 10.428 4.49091 11.0947L0.345455 16.8211C0.294934 16.8988 0.254297 16.983 0.224545 17.0716L0.120909 17.2684C0.0446777 17.468 0.00372235 17.6801 0 17.8947ZM27.6364 28.6316C27.6364 28.2777 27.7377 27.9317 27.9275 27.6374C28.1173 27.3431 28.387 27.1138 28.7026 26.9783C29.0183 26.8429 29.3656 26.8074 29.7006 26.8765C30.0357 26.9455 30.3434 27.116 30.585 27.3662C30.8266 27.6165 30.9911 27.9353 31.0577 28.2825C31.1244 28.6296 31.0902 28.9894 30.9594 29.3164C30.8287 29.6434 30.6073 29.9228 30.3233 30.1195C30.0392 30.3161 29.7053 30.4211 29.3636 30.4211C28.9055 30.4211 28.4662 30.2325 28.1423 29.8969C27.8183 29.5613 27.6364 29.1062 27.6364 28.6316ZM15.5455 5.36842C15.5455 4.89382 15.7274 4.43866 16.0514 4.10307C16.3753 3.76748 16.8146 3.57895 17.2727 3.57895H32.8182C33.2763 3.57895 33.7156 3.76748 34.0396 4.10307C34.3635 4.43866 34.5455 4.89382 34.5455 5.36842V25.0526H33.1982C32.7125 24.499 32.1205 24.0567 31.4602 23.7541C30.7998 23.4514 30.0857 23.295 29.3636 23.295C28.6416 23.295 27.9274 23.4514 27.2671 23.7541C26.6068 24.0567 26.0148 24.499 25.5291 25.0526H15.5455V5.36842ZM12.0909 16.1053H5.18182L7.25455 13.2421C7.41544 13.0199 7.62406 12.8395 7.8639 12.7152C8.10375 12.591 8.36821 12.5263 8.63636 12.5263H12.0909V16.1053ZM6.90909 28.6316C6.90909 28.2777 7.01039 27.9317 7.20019 27.6374C7.38998 27.3431 7.65975 27.1138 7.97537 26.9783C8.29098 26.8429 8.63828 26.8074 8.97334 26.8765C9.3084 26.9455 9.61617 27.116 9.85773 27.3662C10.0993 27.6165 10.2638 27.9353 10.3304 28.2825C10.3971 28.6296 10.3629 28.9894 10.2322 29.3164C10.1014 29.6434 9.88003 29.9228 9.59598 30.1195C9.31194 30.3161 8.97799 30.4211 8.63636 30.4211C8.17826 30.4211 7.73892 30.2325 7.415 29.8969C7.09107 29.5613 6.90909 29.1062 6.90909 28.6316ZM3.45455 19.6842H12.0909V24.6589C11.0715 23.7151 9.73341 23.2269 8.36811 23.3006C7.0028 23.3743 5.72094 24.0041 4.80182 25.0526H3.45455V19.6842Z" fill="#5CC773"/>
</svg>

<svg width="38" height="34" fill="none" xmlns="http://www.w3.org/2000/svg">
    <path d="M0 17.895v8.947c0 .475.182.93.506 1.266.324.335.763.524 1.221.524h1.728c0 1.423.545 2.789 1.517 3.796A5.092 5.092 0 0 0 8.636 34a5.092 5.092 0 0 0 3.665-1.572 5.468 5.468 0 0 0 1.517-3.796h10.364c0 1.423.546 2.789 1.518 3.796A5.092 5.092 0 0 0 29.364 34a5.092 5.092 0 0 0 3.664-1.572 5.468 5.468 0 0 0 1.517-3.796h1.728c.458 0 .897-.189 1.221-.524.324-.336.506-.791.506-1.266V5.368c0-1.423-.546-2.789-1.518-3.796A5.092 5.092 0 0 0 32.818 0H17.273a5.092 5.092 0 0 0-3.664 1.572 5.468 5.468 0 0 0-1.518 3.796v3.58H8.636c-.804 0-1.597.193-2.317.566a5.23 5.23 0 0 0-1.828 1.58L.345 16.822c-.05.078-.09.162-.12.25l-.104.197c-.076.2-.117.412-.121.627zm27.636 10.737c0-.354.102-.7.291-.995.19-.294.46-.523.776-.659.315-.135.663-.17.998-.102.335.07.642.24.884.49s.406.57.473.916c.066.348.032.707-.099 1.034-.13.327-.352.607-.636.803a1.685 1.685 0 0 1-.96.302c-.457 0-.897-.188-1.22-.524a1.822 1.822 0 0 1-.507-1.265zM15.546 5.368c0-.474.181-.93.505-1.265a1.697 1.697 0 0 1 1.222-.524h15.545c.458 0 .898.188 1.222.524.324.336.505.79.505 1.265v19.685h-1.347a5.191 5.191 0 0 0-1.738-1.299 5.029 5.029 0 0 0-4.193 0 5.191 5.191 0 0 0-1.738 1.299h-9.983V5.368zM12.09 16.105H5.18l2.074-2.863c.16-.222.37-.403.609-.527.24-.124.504-.189.772-.189h3.455v3.58zM6.909 28.632c0-.354.101-.7.291-.995.19-.294.46-.523.775-.659.316-.135.663-.17.998-.102.335.07.643.24.885.49.241.25.406.57.472.916a1.85 1.85 0 0 1-.098 1.034c-.13.327-.352.607-.636.803a1.685 1.685 0 0 1-.96.302c-.458 0-.897-.188-1.221-.524a1.823 1.823 0 0 1-.506-1.265zm-3.454-8.948h8.636v4.975A5.073 5.073 0 0 0 8.368 23.3a5.112 5.112 0 0 0-3.566 1.752H3.455v-5.369z" fill="#5CC773"/>
</svg>
